X: 471	% 132
T: I'll Remember You Love In My Prayers
S: Viola Ruth "Pioneer Western Folk Tunes" 1948 p.47 #1
R: waltz
N: Illegible text above intro & 1st bar
Z: 2019 John Chambers <jc:trillian.mit.edu>
N: Should the final high e be a high g?
M: 3/4
L: 1/8
K: G
V: 1 name="132"
(BA) |\
(G2B2d2) | g2b2(MgMg) | (a2g2e2) | d4(MdMd) |\
(e2f2g2) | (d2c2B2) | A6- | A4BA |\
(G2B2d2) | g2c'2(MgMg) | (a2g2e2) | d4(MdMd) |
(e2a2g2) | (f2e2f2) | g6- | g4 |:\
(MdMd) | g4(ag) | f4(MdMd) | (e2f2g2) | d4(MdMd) |\
(e2f2g2) | (d2c2B2) | A6- | A4 (BA) |
(G2B2d2) |(g2b2)  (MgMg) | (a2g2e2) | d4(^cd) |\
(e2a2g2) | f2(b2a2) |[1 g6 | g4 :|\
[2 g6- | g2(b2d'2) | He'4z2 |]
